assets/icons/ic-instagram.svg

<?xml version="1.0" encoding="UTF-8"?>
<svg width="20px" height="20px" viewBox="0 0 20 20" version="1.1" xmlns="http://www.w3.org/2000/svg" xmlns:xlink="http://www.w3.org/1999/xlink">
    <!-- Generator: Sketch 42 (36781) - http://www.bohemiancoding.com/sketch -->
    <title>Icon / ic-instagram</title>
    <desc>Created with Sketch.</desc>
    <defs></defs>
    <g id="Symbols" stroke="none" stroke-width="1" fill="none" fill-rule="evenodd">
        <g id="Desktop-/-Footer" transform="translate(-1170.000000, -149.000000)">
            <g id="FF_Footer">
                <g id="Icon-/-ic-instagram" transform="translate(1168.000000, 147.000000)">
                    <g id="ic_instagram">
                        <polygon id="Bounds" points="0 0 24 0 24 24 0 24"></polygon>
                        <g id="instagram" transform="translate(2.000000, 2.000000)" fill="#DD4BA3">
                            <path d="M10,0 C7.28375,0 6.94375,0.0125 5.8775,0.06 C4.8125,0.11 4.0875,0.2775 3.45,0.525 C2.7925,0.78 2.23375,1.1225 1.67875,1.67875 C1.1225,2.23375 0.77875,2.79125 0.525,3.45 C0.2775,4.0875 0.10875,4.8125 0.06,5.8775 C0.01,6.94375 0,7.28375 0,10 C0,12.71625 0.0125,13.05625 0.06,14.1225 C0.11,15.1875 0.2775,15.91375 0.525,16.55 C0.78,17.2075 1.1225,17.76625 1.67875,18.32125 C2.23375,18.8775 2.79125,19.22125 3.45,19.475 C4.0875,19.7225 4.8125,19.89125 5.8775,19.94 C6.94375,19.99 7.28375,20 10,20 C12.71625,20 13.05625,19.9875 14.1225,19.94 C15.1875,19.89 15.91375,19.7225 16.55,19.475 C17.2075,19.22 17.76625,18.8775 18.32125,18.32125 C18.8775,17.76625 19.22125,17.20875 19.475,16.55 C19.7225,15.9125 19.89125,15.1875 19.94,14.1225 C19.99,13.05625 20,12.71625 20,10 C20,7.28375 19.9875,6.94375 19.94,5.8775 C19.89,4.8125 19.7225,4.08625 19.475,3.45 C19.22,2.7925 18.8775,2.23375 18.32125,1.67875 C17.76625,1.1225 17.20875,0.77875 16.55,0.525 C15.9125,0.2775 15.1875,0.10875 14.1225,0.06 C13.05625,0.01 12.71625,0 10,0 Z M10,1.8 C12.67,1.8 12.9875,1.8125 14.04125,1.86 C15.01625,1.905 15.545,2.0675 15.8975,2.205 C16.365,2.38625 16.6975,2.6025 17.0475,2.9525 C17.3975,3.3025 17.61375,3.635 17.795,4.1025 C17.9325,4.455 18.095,4.98375 18.14,5.95875 C18.1875,7.01375 18.19875,7.33 18.19875,10 C18.19875,12.67 18.18625,12.9875 18.13875,14.04125 C18.09375,15.01625 17.93125,15.545 17.79375,15.8975 C17.6125,16.365 17.39625,16.6975 17.04625,17.0475 C16.69625,17.3975 16.36375,17.61375 15.89625,17.795 C15.54375,17.9325 15.015,18.095 14.04,18.14 C12.985,18.1875 12.66875,18.19875 9.99875,18.19875 C7.32875,18.19875 7.01125,18.18625 5.9575,18.13875 C4.9825,18.09375 4.45375,17.93125 4.10125,17.79375 C3.63375,17.6125 3.30125,17.39625 2.95125,17.04625 C2.60125,16.69625 2.385,16.36375 2.20375,15.89625 C2.06625,15.54375 1.90375,15.015 1.85875,14.04 C1.8125,12.9875 1.8,12.67 1.8,10 C1.8,7.33 1.8125,7.0125 1.86,5.95875 C1.905,4.98375 2.0675,4.455 2.205,4.1025 C2.38625,3.635 2.6025,3.3025 2.9525,2.9525 C3.3025,2.6025 3.635,2.38625 4.1025,2.205 C4.455,2.0675 4.98375,1.905 5.95875,1.86 C7.0125,1.8125 7.33,1.8 10,1.8 Z M10,4.865 C7.1625,4.865 4.865,7.165 4.865,10 C4.865,12.8375 7.165,15.135 10,15.135 C12.8375,15.135 15.135,12.835 15.135,10 C15.135,7.1625 12.835,4.865 10,4.865 L10,4.865 Z M10,13.33375 C8.15875,13.33375 6.66625,11.84125 6.66625,10 C6.66625,8.15875 8.15875,6.66625 10,6.66625 C11.84125,6.66625 13.33375,8.15875 13.33375,10 C13.33375,11.84125 11.84125,13.33375 10,13.33375 Z M16.5375,4.6625 C16.5375,5.325 16,5.8625 15.3375,5.8625 C14.675,5.8625 14.1375,5.325 14.1375,4.6625 C14.1375,4 14.675,3.4625 15.3375,3.4625 C16,3.4625 16.5375,4 16.5375,4.6625 Z" id="Shape"></path>
                        </g>
                    </g>
                </g>
            </g>
        </g>
    </g>
</svg>

<svg width="20" height="20" xmlns="http://www.w3.org/2000/svg"><g fill="none" fill-rule="evenodd"><path d="M-2-2h24v24H-2z"/><path d="M10 0C7.284 0 6.944.013 5.878.06 4.812.11 4.088.278 3.45.525a4.884 4.884 0 00-1.771 1.154A4.858 4.858 0 00.525 3.45C.278 4.088.109 4.812.06 5.878.01 6.944 0 7.284 0 10s.013 3.056.06 4.123c.05 1.065.218 1.79.465 2.427a4.884 4.884 0 001.154 1.771c.555.556 1.112.9 1.771 1.154.638.247 1.362.416 2.428.465 1.066.05 1.406.06 4.122.06s3.056-.012 4.123-.06c1.065-.05 1.79-.218 2.427-.465a4.884 4.884 0 001.771-1.154c.556-.555.9-1.112 1.154-1.771.247-.638.416-1.363.465-2.428.05-1.066.06-1.406.06-4.122s-.012-3.056-.06-4.122c-.05-1.066-.218-1.792-.465-2.428a4.884 4.884 0 00-1.154-1.771A4.858 4.858 0 0016.55.525C15.912.278 15.187.109 14.122.06 13.056.01 12.716 0 10 0zm0 1.8c2.67 0 2.988.012 4.041.06.975.045 1.504.207 1.857.345.467.181.8.397 1.15.748.35.35.566.682.747 1.15.137.352.3.88.345 1.856.047 1.055.059 1.371.059 4.041 0 2.67-.013 2.988-.06 4.041-.045.975-.208 1.504-.345 1.857a3.09 3.09 0 01-.748 1.15 3.09 3.09 0 01-1.15.747c-.352.137-.881.3-1.856.345-1.055.047-1.371.059-4.041.059-2.67 0-2.988-.013-4.042-.06-.974-.045-1.503-.208-1.856-.345a3.09 3.09 0 01-1.15-.748 3.09 3.09 0 01-.747-1.15c-.138-.352-.3-.881-.345-1.856C1.813 12.988 1.8 12.67 1.8 10s.012-2.987.06-4.041c.045-.975.207-1.504.345-1.856.181-.468.397-.8.748-1.15a3.09 3.09 0 011.15-.748c.352-.138.88-.3 1.856-.345C7.013 1.812 7.33 1.8 10 1.8zm0 3.065a5.135 5.135 0 100 10.27 5.135 5.135 0 000-10.27zm0 8.469a3.334 3.334 0 110-6.668 3.334 3.334 0 010 6.668zm6.538-8.671a1.2 1.2 0 11-2.401-.001 1.2 1.2 0 012.4 0z" fill="#DD4BA3"/></g></svg>
